swift.svg

<?xml version="1.0" encoding="UTF-8"?>
<svg viewBox="0 0 24 24" version="1.1" xmlns="http://www.w3.org/2000/svg" xmlns:xlink="http://www.w3.org/1999/xlink">
    <title>Swift</title>
        <path d="M22.0005353,14.7747793 L21.9975351,14.7718455 C22.0305374,14.6544922 22.0695401,14.5371389 22.0995422,14.4197856 C23.4196343,9.27677763 20.1974095,3.19787717 14.7490293,0 C17.1371959,3.16560502 18.1932696,7.00012379 17.2542041,10.3534941 C17.1701982,10.652745 17.0711913,10.9402605 16.9601836,11.2189746 C16.8038215,11.1211047 16.6436936,11.0291109 16.4801501,10.9431944 C16.4801501,10.9431944 11.0647722,7.66903754 5.18436179,1.87765265 C5.03135111,1.72802721 8.31958058,6.47496781 12.0488408,10.3270896 C10.2907181,9.36479259 5.39437645,5.87939986 2.29215996,3.10399454 C2.67318655,3.72596698 3.12621816,4.32153493 3.62425292,4.89949989 C6.21343361,8.10911238 9.59466957,12.0697859 13.6359516,15.1151038 C10.7947533,16.8167266 6.77747297,16.948749 2.77819388,15.1151038 C1.78812478,14.6632937 0.85805988,14.1176009 0,13.4956284 C1.78751035,16.2729305 4.39147103,18.4572695 7.47052133,19.7622941 C11.2567856,21.3524312 15.0190481,21.2438794 17.8212437,19.7886986 L17.8632466,19.765228 C17.9772545,19.7065513 18.0912625,19.6449409 18.2022703,19.5803965 C19.5523645,18.8968136 22.21055,18.2014954 23.6386496,20.9182241 C23.9866739,21.584204 24.7307258,18.0606714 22.0005353,14.7747793 Z" fill="#F05138"></path>
</svg>

<svg viewBox="0 0 24 24" xmlns="http://www.w3.org/2000/svg"><path d="m22 14.775-.002-.003c.033-.118.072-.235.102-.352C23.42 9.277 20.197 3.198 14.749 0c2.388 3.166 3.444 7 2.505 10.353-.084.3-.183.587-.294.866a7.33 7.33 0 0 0-.48-.276S11.065 7.67 5.184 1.878c-.153-.15 3.136 4.597 6.865 8.45-1.758-.963-6.655-4.449-9.757-7.224.381.622.834 1.218 1.332 1.795 2.59 3.21 5.97 7.17 10.012 10.216-2.841 1.702-6.859 1.834-10.858 0-.99-.452-1.92-.997-2.778-1.62a16.553 16.553 0 0 0 7.47 6.267c3.787 1.59 7.549 1.482 10.351.027l.042-.024c.114-.058.228-.12.34-.185 1.35-.683 4.008-1.379 5.436 1.338.348.666 1.092-2.857-1.638-6.143Z" fill="#F05138"/></svg>
